img/logo-symbol-primary.svg

<svg fill="none" height="30" viewBox="0 0 30 30" width="30" xmlns="http://www.w3.org/2000/svg"><path clip-rule="evenodd" d="m2.34375 0h25.31245c1.2945 0 2.3438 1.04933 2.3438 2.34375v25.31245c0 1.2945-1.0493 2.3438-2.3438 2.3438h-25.31245c-1.29442 0-2.34375-1.0493-2.34375-2.3438v-25.31245c0-1.29442 1.04933-2.34375 2.34375-2.34375zm18.34335 6.71875h-3.705c-1.2508 0-2.4106.20979-3.4794.62937-1.0687.41959-2.0068 1.02521-2.8143 1.81688-.82338.82334-1.46066 1.7812-1.91192 2.8737-.45125 1.0926-.67687 2.2167-.67687 3.3726 0 2.375.62937 4.2789 1.88812 5.7118 1.25877 1.4329 2.94107 2.1494 5.04687 2.1494 1.4884 0 2.8302-.4671 4.0256-1.4013 1.1955-.9341 2.1415-2.2324 2.8382-3.895l-.3563-.2375c-.5858.9184-1.2983 1.6071-2.1375 2.0663s-1.8129.6887-2.9212.6887c-1.5359 0-2.7432-.6452-3.6219-1.9356-.8788-1.2904-1.3181-3.0281-1.3181-5.2131 0-1.7575.3443-3.139 1.0331-4.14438.6887-1.00542 1.6664-1.50812 2.9331-1.50812 1.0767 0 2.0385.34041 2.8856 1.02125s1.5082 1.62295 1.9832 2.82625h.3087z" fill="#b5792a" fill-rule="evenodd"/></svg>

<svg width="30" height="30" viewBox="0 0 30 30" fill="none" xmlns="http://www.w3.org/2000/svg">
<path fill-rule="evenodd" clip-rule="evenodd" d="M2.34375 0H27.6562C28.9507 0 30 1.04933 30 2.34375V27.6562C30 28.9507 28.9507 30 27.6562 30H2.34375C1.04933 30 0 28.9507 0 27.6562V2.34375C0 1.04933 1.04933 0 2.34375 0ZM20.6871 6.71875H16.9821C15.7313 6.71875 14.5715 6.92854 13.5027 7.34812C12.434 7.76771 11.4959 8.37333 10.6884 9.165C9.86502 9.98834 9.22774 10.9462 8.77648 12.0387C8.32523 13.1313 8.09961 14.2554 8.09961 15.4113C8.09961 17.7863 8.72898 19.6902 9.98773 21.1231C11.2465 22.556 12.9288 23.2725 15.0346 23.2725C16.523 23.2725 17.8648 22.8054 19.0602 21.8712C20.2557 20.9371 21.2017 19.6388 21.8984 17.9762L21.5421 17.7387C20.9563 18.6571 20.2438 19.3458 19.4046 19.805C18.5654 20.2642 17.5917 20.4937 16.4834 20.4937C14.9475 20.4937 13.7402 19.8485 12.8615 18.5581C11.9827 17.2677 11.5434 15.53 11.5434 13.345C11.5434 11.5875 11.8877 10.206 12.5765 9.20062C13.2652 8.1952 14.2429 7.6925 15.5096 7.6925C16.5863 7.6925 17.5481 8.03291 18.3952 8.71375C19.2423 9.39459 19.9034 10.3367 20.3784 11.54H20.6871V6.71875Z" fill="#B5792A"/>
</svg>
